src/shared/images/icon-gps.svg

<?xml version="1.0" encoding="UTF-8"?>
<svg viewBox="0 0 20 20" version="1.1" xmlns="http://www.w3.org/2000/svg" xmlns:xlink="http://www.w3.org/1999/xlink">
    <path color="currentColor" fill="currentColor" d="M18,8.75 C17.4859666,5.25703517 14.7429648,2.51403336 11.25,2 L11.25,0 L8.75,0 L8.75,2 C5.2472512,2.49449672 2.49449672,5.2472512 2,8.75 L0,8.75 L0,11.25 L2,11.25 C2.49449672,14.7527488 5.2472512,17.5055033 8.75,18 L8.75,20 L11.25,20 L11.25,18 C14.7333462,17.4668988 17.4668988,14.7333462 18,11.25 L20,11.25 L20,8.75 L18,8.75 Z M10,15.625 C6.89339828,15.625 4.375,13.1066017 4.375,10 C4.375,6.89339828 6.89339828,4.375 10,4.375 C13.1066017,4.375 15.625,6.89339828 15.625,10 C15.625,11.4918428 15.0323678,12.9225835 13.9774756,13.9774756 C12.9225835,15.0323678 11.4918428,15.625 10,15.625 Z M13.125,10 C13.125,11.7258898 11.7258898,13.125 10,13.125 C8.27411016,13.125 6.875,11.7258898 6.875,10 C6.875,8.27411016 8.27411016,6.875 10,6.875 C11.7258898,6.875 13.125,8.27411016 13.125,10 Z" />
</svg>

<svg viewBox="0 0 20 20"><path color="currentColor" fill="currentColor" d="M18 8.75A8 8 0 0011.25 2V0h-2.5v2A7.938 7.938 0 002 8.75H0v2.5h2A7.937 7.937 0 008.75 18v2h2.5v-2A8.063 8.063 0 0018 11.25h2v-2.5h-2zm-8 6.875a5.625 5.625 0 110-11.25 5.625 5.625 0 010 11.25zM13.125 10a3.125 3.125 0 11-6.25 0 3.125 3.125 0 016.25 0z"/></svg>
